X:1
T:Carnes, 87.87
T:Carnes, 87.87
T:Lowell Mason, 1844
T:Public Domain Courtesy of the Cyber Hymnal™
C:Lowell Mason, 1844
Z:Public Domain
Z:Courtesy of the Cyber Hymnal™
%%score ( 1 2 ) ( 3 4 )
L:1/8
Q:1/4=100
M:3/4
K:C
V:1 treble 
V:2 treble 
V:3 bass 
V:4 bass 
V:1
 [CA][EA] | [E^G]2 E2 [EA][Ec] | [EB]2 [EB]2 [EB][EB] | [Ec]3 [Ec] [Ad][Ad] | [^Ge]4 [EB]>[EB] | %5
 [^Ge]3 [EB] [Ec][CE] | [DG]2 [DG]2 [A,C]>[B,D] | [CE][EA] (A2 z D) x | [CA]4 |] %9
V:2
 x2 | x2 E2 x2 | x6 | x6 | x6 | x6 | x6 | x2 E3 ^G2 | x4 |] %9
V:3
 [A,,A,][C,A,] | [B,,E,]2 ^G,2 [C,A,][A,,A,] | [E,^G,]2 [E,G,]2 [E,G,][E,G,] | %3
 A,3 [G,A,] [F,A,][F,A,] | [E,B,]4 [E,^G,]>[E,G,] | [B,,E,]3 [E,^G,] [A,,A,][C,=G,] | %6
 [G,,B,]2 [G,B,]2 [A,,A,]>[A,,A,] | [A,,A,][C,A,] [C,E,]2 [E,G,]2 x | [A,,A,]4 |] %9
V:4
 x2 | x2 (E,D,) x2 | x6 | A,3 x3 | x6 | x6 | x6 | x7 | x4 |] %9

